X:1
T:Be Not Afraid
T:Be Not Afraid
T:Anonymous
T:Abraham Metzler, 1886
T:Public Domain Courtesy of the Cyber Hymnal™
T:Public Domain Courtesy of the Cyber Hymnal™
C:Anonymous
Z:Public Domain
Z:Courtesy of the Cyber Hymnal™
%%score ( 1 2 ) ( 3 4 )
L:1/8
Q:1/4=115
M:4/4
K:G
V:1 treble 
V:2 treble 
V:3 bass 
V:4 bass 
V:1
 D2 | [DB]2 [DB]2 [DA]2 [DB]2 | [Ec]4 [DB]2 [CA]2 | [B,G]2 [DG]2 [DA]2 [DA]2 | [DB]6 D2 | %5
w: 1.~When|tri- als and temp-|ta- tions A-|round thee dark- ly|flow, When|
w: 2.~When|wa- ters of af-|flic- tion May|seem to o- ver-|flow, Or|
w: 3.~The|soul that Je- sus|lov- eth He’ll|chas- ten and re-|fine; That|
w: 3.~“Let|not your heart be|trou- bled,” Oh,|hear the Sav- ior|speak; God|
 [GB]2 [GB]2 [FA]2 [GB]2 | [Gc]4 [GB]2 [EA]2 | [DG]2 [DB]2 [DA]2 [DF]2 | [DG]6 D2 | %9
w: storms and griefs as-|sail thee To|bring thy cour- age|low, Be|
w: through some fier- y|tri- al You|may be called to|go, Keep|
w: like a gold- en|lus- ter It|may the bright- er|shine; The|
w: com- forts you in|sor- rows, When|sad you feel and|weak; He|
 [DB]2 [DB]2 [DA]2 [DB]2 | [Ec]4 [DB]2 [CA]2 | [B,G]2 [DG]2 [DA]2 [DA]2 | [DB]6 D2 | %13
w: not dis- cour- aged,|bro- ther, But|firm- ly stand and|wait; The|
w: up your faith and|cour- age, The|Lord will dis- si-|pate The|
w: dross a- lone will|van- ish, The|gold is bright- er|made; Be|
w: leads you through the|riv- er Which|sin- ners can- not|wade, And|
 [GB]2 [GB]2 [FA]2 [GB]2 | [Gc]4 [GB]2 [EA]2 | [DG]2 [DB]2 [DA]2 [DF]2 | [DG]6 ||"^Refrain" G[GA] | %18
w: clouds a- gain will|van- ish, Oh,|be thou not a-|fraid!||
w: waves that dash a-|gainst thee; Fear|not, be not a-|fraid.||
w: not dis- cour- aged,|bro- ther, Fear|not, be not a-|fraid!||
w: death shall lose its|ter- rors; Fear|not, be not a-|fraid!||
 [GB]4 [GB]2 [GB]2 | [Bd]6 [Ac][GB] | [FA]4 [FA]2 [GB]2 | [Fc]6 [GB][FA] | %22
w: ||||
w: ||||
w: ||||
w: ||||
 G4 !fermata![GB]2 [DG][DG] | [EA]4 !fermata![Ac]2 [GB][EA] | ([DG]2 [GB]2) [FA]2 [DF]2 | [DG]6 |] %26
w: ||||
w: ||||
w: ||||
w: ||||
V:2
 D2 | x8 | x8 | x8 | x6 D2 | x8 | x8 | x8 | x6 D2 | x8 | x8 | x8 | x6 D2 | x8 | x8 | x8 | x6 || %17
 G x | x8 | x8 | x8 | x8 | G4 x4 | x8 | x8 | x6 |] %26
V:3
 D,2 | G,2 G,2 [F,D]2 [G,D]2 | [C,C]4 [C,G,]2 [C,G,]2 | [G,,G,]2 [B,,G,]2 [D,F,]2 [D,F,]2 | %4
w: |There is * *|||
 G,6 [D,B,]2 | [G,D]2 [G,D]2 [D,D]2 [G,D]2 | [C,E]4 [C,D]2 [C,C]2 | [D,B,]2 [D,D]2 [D,C]2 [D,A,]2 | %8
w: sweet *||||
 [G,B,]6 D,2 | G,2 G,2 [F,D]2 [G,D]2 | [C,C]4 [C,G,]2 [C,G,]2 | [G,,G,]2 [B,,G,]2 [D,F,]2 [D,F,]2 | %12
w: * rest|in Heav’n, * *|||
 G,6 [D,B,]2 | [G,D]2 [G,D]2 [D,D]2 [G,D]2 | [C,E]4 [C,D]2 [C,C]2 | [D,B,]2 [D,D]2 [D,C]2 [D,A,]2 | %16
w: There *||||
 [G,B,]6 || [G,B,][G,C] | [G,D]4 [G,D]2 [G,D]2 | [G,D]6 [G,D][G,D] | [D,D]4 [D,C]2 [D,B,]2 | %21
w: |is sweet|rest in Heav’n;|There is sweet|rest, There is|
 [D,A,]6 [D,D][D,C] | [G,B,]4 !fermata![G,D]2 [G,B,][G,B,] | [C,C]4 !fermata![C,E]2 [C,D][C,C] | %24
w: sweet rest; There|is sweet rest in|Heav’n. * * *|
 (B,2 D2) [D,C]2 [D,A,]2 | [G,,B,]6 |] %26
w: ||
V:4
 D,2 | G,2 G,2 x4 | x8 | x8 | G,6 x2 | x8 | x8 | x8 | x6 D,2 | G,2 G,2 x4 | x8 | x8 | G,6 x2 | x8 | %14
 x8 | x8 | x6 || x2 | x8 | x8 | x8 | x8 | x8 | x8 | D,4 x4 | x6 |] %26

